build/img/icons/wall.svg

<svg width="22" height="22" viewBox="0 0 22 22" fill="none" xmlns="http://www.w3.org/2000/svg">
<mask id="path-1-inside-1" fill="white">
<path d="M0 21.2724C0 14.4089 0 7.54531 0 0.6875C0.108854 0.34375 0.338021 0.114583 0.6875 0C7.55104 0 14.4089 0 21.2724 0C21.7766 0.171875 21.9656 0.521354 21.9656 1.04844C21.9599 7.67135 21.9599 14.3 21.9599 20.9229C21.9599 21.6391 21.6448 21.9542 20.9286 21.9542C14.3115 21.9542 7.69427 21.9484 1.07135 21.9599C0.538542 21.9656 0.171875 21.788 0 21.2724ZM1.73021 20.224C7.48802 20.224 13.2344 20.224 18.9521 20.224C13.2115 14.4833 7.47083 8.74271 1.73021 3.00208C1.73021 8.72552 1.73021 14.4661 1.73021 20.224ZM11.8422 6.72604C14.6495 6.72604 17.4396 6.72604 20.224 6.72604C20.224 5.0474 20.224 3.39167 20.224 1.73021C17.4224 1.73021 14.6323 1.73021 11.8422 1.73021C11.8422 3.40313 11.8422 5.05885 11.8422 6.72604ZM20.2297 8.47917C18.5453 8.47917 16.8839 8.47917 15.2281 8.47917C15.2281 10.1578 15.2281 11.8193 15.2281 13.4865C16.901 13.4865 18.5625 13.4865 20.2297 13.4865C20.2297 11.8078 20.2297 10.1464 20.2297 8.47917ZM2.96198 1.72448C2.99062 1.76458 2.99635 1.77604 3.00781 1.7875C4.62917 3.40885 6.25052 5.03021 7.8776 6.65156C7.9349 6.70885 8.03802 6.7375 8.12396 6.7375C8.60521 6.74323 9.08073 6.74323 9.56198 6.74323C9.74531 6.74323 9.92865 6.74323 10.112 6.74323C10.112 5.05312 10.112 3.39167 10.112 1.72448C7.72292 1.72448 5.35677 1.72448 2.96198 1.72448ZM9.78542 8.46198C11.0172 9.69375 12.2604 10.9427 13.4922 12.1687C13.4865 12.1917 13.4979 12.1687 13.4979 12.1516C13.4979 10.9828 13.4979 9.80833 13.5036 8.63958C13.5036 8.46771 13.4234 8.46198 13.2917 8.46198C12.1573 8.46771 11.0229 8.46198 9.88281 8.46198C9.83698 8.46198 9.79115 8.46198 9.78542 8.46198ZM16.5172 15.2224C17.7547 16.4599 18.9979 17.7089 20.224 18.9349C20.224 17.7203 20.224 16.4771 20.224 15.2224C18.975 15.2224 17.7375 15.2224 16.5172 15.2224Z"/>
</mask>
<path d="M0 21.2724C0 14.4089 0 7.54531 0 0.6875C0.108854 0.34375 0.338021 0.114583 0.6875 0C7.55104 0 14.4089 0 21.2724 0C21.7766 0.171875 21.9656 0.521354 21.9656 1.04844C21.9599 7.67135 21.9599 14.3 21.9599 20.9229C21.9599 21.6391 21.6448 21.9542 20.9286 21.9542C14.3115 21.9542 7.69427 21.9484 1.07135 21.9599C0.538542 21.9656 0.171875 21.788 0 21.2724ZM1.73021 20.224C7.48802 20.224 13.2344 20.224 18.9521 20.224C13.2115 14.4833 7.47083 8.74271 1.73021 3.00208C1.73021 8.72552 1.73021 14.4661 1.73021 20.224ZM11.8422 6.72604C14.6495 6.72604 17.4396 6.72604 20.224 6.72604C20.224 5.0474 20.224 3.39167 20.224 1.73021C17.4224 1.73021 14.6323 1.73021 11.8422 1.73021C11.8422 3.40313 11.8422 5.05885 11.8422 6.72604ZM20.2297 8.47917C18.5453 8.47917 16.8839 8.47917 15.2281 8.47917C15.2281 10.1578 15.2281 11.8193 15.2281 13.4865C16.901 13.4865 18.5625 13.4865 20.2297 13.4865C20.2297 11.8078 20.2297 10.1464 20.2297 8.47917ZM2.96198 1.72448C2.99062 1.76458 2.99635 1.77604 3.00781 1.7875C4.62917 3.40885 6.25052 5.03021 7.8776 6.65156C7.9349 6.70885 8.03802 6.7375 8.12396 6.7375C8.60521 6.74323 9.08073 6.74323 9.56198 6.74323C9.74531 6.74323 9.92865 6.74323 10.112 6.74323C10.112 5.05312 10.112 3.39167 10.112 1.72448C7.72292 1.72448 5.35677 1.72448 2.96198 1.72448ZM9.78542 8.46198C11.0172 9.69375 12.2604 10.9427 13.4922 12.1687C13.4865 12.1917 13.4979 12.1687 13.4979 12.1516C13.4979 10.9828 13.4979 9.80833 13.5036 8.63958C13.5036 8.46771 13.4234 8.46198 13.2917 8.46198C12.1573 8.46771 11.0229 8.46198 9.88281 8.46198C9.83698 8.46198 9.79115 8.46198 9.78542 8.46198ZM16.5172 15.2224C17.7547 16.4599 18.9979 17.7089 20.224 18.9349C20.224 17.7203 20.224 16.4771 20.224 15.2224C18.975 15.2224 17.7375 15.2224 16.5172 15.2224Z" fill="white"/>

<path d="M0 21.2724V0.6875C0.108854 0.34375 0.338021 0.114583 0.6875 0H21.2724C21.7766 0.171875 21.9656 0.521354 21.9656 1.04844C21.9599 7.67135 21.9599 14.3 21.9599 20.9229C21.9599 21.6391 21.6448 21.9542 20.9286 21.9542C19.2743 21.9542 17.62 21.9538 15.9655 21.9534C11.0024 21.9524 6.03849 21.9513 1.07135 21.9599C0.538542 21.9656 0.171875 21.788 0 21.2724ZM1.73021 20.224H18.9521L1.73021 3.00208V20.224ZM11.8422 6.72604H20.224V1.73021H11.8422V6.72604ZM20.2297 8.47917H15.2281V13.4865H20.2297V8.47917ZM2.96198 1.72448C2.97251 1.73922 2.97994 1.75009 2.9857 1.75851C2.99561 1.77301 3.00057 1.78025 3.00781 1.7875C4.62917 3.40885 6.25052 5.03021 7.8776 6.65156C7.9349 6.70885 8.03802 6.7375 8.12396 6.7375C8.60521 6.74323 9.08073 6.74323 9.56198 6.74323H10.112V1.72448H2.96198ZM9.78542 8.46198C10.1956 8.87215 10.607 9.28422 11.0189 9.69672C11.8439 10.523 12.6706 11.351 13.4922 12.1687C13.4865 12.1917 13.4979 12.1687 13.4979 12.1516C13.4979 10.9828 13.4979 9.80833 13.5036 8.63958C13.5036 8.46771 13.4234 8.46198 13.2917 8.46198C12.5358 8.4658 11.78 8.46453 11.0225 8.46325C10.6431 8.46262 10.2633 8.46198 9.88281 8.46198H9.78542ZM16.5172 15.2224C17.1373 15.8425 17.7589 16.4655 18.379 17.0871C18.9964 17.7059 19.6123 18.3232 20.224 18.9349V15.2224H16.5172Z" fill="#535257"/>
</svg>

<svg width="22" height="22" fill="none" xmlns="http://www.w3.org/2000/svg">
    <path d="M0 21.272V.688A1.01 1.01 0 0 1 .688 0h20.584c.505.172.694.521.694 1.048-.006 6.623-.006 13.252-.006 19.875 0 .716-.315 1.031-1.031 1.031-6.617 0-13.235-.006-19.858.006-.532.006-.9-.172-1.071-.688zm1.73-1.048h17.222L1.73 3.002v17.222zM11.842 6.726h8.382V1.73h-8.382v4.996zm8.388 1.753h-5.002v5.008h5.002V8.479zM2.962 1.724c.029.04.034.052.046.064 1.621 1.62 3.243 3.242 4.87 4.864.057.057.16.085.246.085.481.006.957.006 1.438.006h.55V1.724h-7.15zm6.823 6.738c1.232 1.232 2.475 2.48 3.707 3.707-.006.023.006 0 .006-.017 0-1.17 0-2.344.006-3.512 0-.172-.08-.178-.212-.178-1.135.006-2.27 0-3.41 0h-.097zm6.732 6.76c1.238 1.238 2.48 2.487 3.707 3.713v-3.713h-3.707z" fill="#fff"/>
    <path d="M0 21.272V.688A1.01 1.01 0 0 1 .688 0h20.584c.505.172.694.521.694 1.048-.006 6.623-.006 13.252-.006 19.875 0 .716-.315 1.031-1.031 1.031h-4.963c-4.964-.002-9.928-.003-14.895.006-.532.006-.9-.172-1.071-.688zm1.73-1.048h17.222L1.73 3.002v17.222zM11.842 6.726h8.382V1.73h-8.382v4.996zm8.388 1.753h-5.002v5.008h5.002V8.479zM2.962 1.724l.024.035a.19.19 0 0 0 .022.029c1.621 1.62 3.243 3.242 4.87 4.864.057.057.16.085.246.085.481.006.957.006 1.438.006h.55V1.724h-7.15zm6.823 6.738 1.234 1.235c.825.826 1.652 1.654 2.473 2.472-.006.023.006 0 .006-.017 0-1.17 0-2.344.006-3.512 0-.172-.08-.178-.212-.178-.756.004-1.512.003-2.27.001l-1.14-.001h-.097zm6.732 6.76 1.862 1.865 1.845 1.848v-3.713h-3.707z" fill="#535257"/>
</svg>
